icon-themes/sifr_svg/cmd/lc_bmpmask.svg

<svg viewBox="0 0 24 24" xmlns="http://www.w3.org/2000/svg"><path d="m12 2-4 4 6 6 8-8v-2zm-6 6c-1.0273689 1.868358-1.1137745 4.056272-1 6l-3 3v1h2l2.2851562-2.427734c2.3987114-.010143 4.0751878-.845942 5.7148438-1.572266z" fill="#555753"/><path d="m1 19v4h6v-4z" fill="#a33e03"/><path d="m9 19v4h6v-4z" fill="#18a303"/><path d="m17 19v4h6v-4z" fill="#0369a3"/></svg>

<svg xmlns="http://www.w3.org/2000/svg" viewBox="0 0 24 24">
  <path
     style="fill:#555753"
     d="M 12 2 L 8 6 L 14 12 L 22 4 L 22 2 L 12 2 z M 6 8 C 4.9726311 9.868358 4.8862255 12.056272 5 14 L 2 17 L 2 18 L 4 18 L 6.2851562 15.572266 C 8.6838676 15.562123 10.360344 14.726324 12 14 L 6 8 z "
     />
  <path
     style="fill:#a33e03"
     d="m 1,19 v 4 h 6 v -4 z"
     />
  <path
     style="fill:#18a303"
     d="m 9,19 v 4 h 6 v -4 z"
     />
  <path
     style="fill:#0369a3"
     d="m 17,19 v 4 h 6 v -4 z"
     />
</svg>
